X:1
T:Alla fonte d'acqua viva
T:Alla fonte d'acqua viva
T:Anónimo 1551 
T:Revisión y Edición Luis Enrique Téllez
T:Salmo 42
T:Copyright D.R. Collegium Musicum-Proyecto Editorial.Prohibida su reproducción total o parcial. Hermosillo, Sonora. México. 2019
C:Salmo Francese 1551
Z:Revisión y Edición Luis Enrique Téllez
Z:Copyright D.R. Collegium Musicum-Proyecto Editorial.Prohibida su reproducción total o parcial. Hermosillo, Sonora. México. 2019
%%score [ ( 1 2 ) ( 3 4 ) ]
L:1/8
M:4/4
K:Bb
V:1 treble nm="S\nA"
V:2 treble 
V:3 bass nm="T\nB"
V:4 bass 
V:1
 B2 c2 d2 c2 | B2 A2 G2 !fermata!F2 | B2 c2 d2 e2 | d2 c2 !fermata!B4 | B2 c2 d2 c2 | %5
 B2 A2 G2 !fermata!F2 | B2 c2 d2 e2 | d2 c2 !fermata!B4 | d2 e2 f2 e2 | d2 c2 !fermata!d4 | %10
 f2 f2 g2 f2 | e2 d2 !fermata!c4 | de f2 e2 dc | B2 c2 d4 | !fermata!B4 de f2 | e2 d2 c2 d2 | %16
 c4 !fermata!B4 :| %17
V:2
 F2 F2 F2 F2 | F=E F2 E2 C2 | G2 F2 F2 _E2 | F2 FE D4 | F2 F2 F2 F2 | F=E F2 E2 C2 | G2 F2 F2 E2 | %7
w: 1.Al- la fon- te|d'a- * cqua vi- va|co- meil cer- vo|cor- ree _ sta,|co- sì l'al- ma,|di _ Te pri- va,|di tua gra- ziain|
w: 2.Per- chè dun- queo|al- * ma ni- a|scon- so- la- tae|tri- ste _ vai?|Il Si- gnor è|sul- * la vi- a,|nel do- lor lo|
 F2 FE D4 | B2 AG FG/_A/ G2 | G2 G2 ^F4 | =F2 B2 B2 A2 | G2 FG A4 | B2 B2 BABA | GF E2 D=E ^F2 | %14
w: cer- ca _ va.|So- noin _ la- * * cri-|mei miei di,|la mia vi- taor-|mai fi- * nì;|Sof- fro, cor- * ro, _|cer- * coin- va- * *|
w: tro- ve- * rai.|In Lui _ spe- * * rae|cre- dian- cor;|sta vi- ci- noa|teil Si- * gnor.|Il per- do- * no _|chie- * de- ra- * *|
 G4 G2 _A2 | G=A B2 AG F2 | F3 E D4 :| %17
w: no; dal Si-|gnor _ Io son _ lon-|ta- * no.|
w: i, la Sua|gra- * zia tro- * ve-|ra- * i.|
V:3
 D2 C2 B,2 A,2 | B,2 C2 CB, A,2 | D2 C2 B,A, B,2 | B,2 A,2 F,4 | D2 C2 B,2 A,2 | B,2 C2 CB, A,2 | %6
 D2 C2 B,A, B,2 | B,2 A,2 F,4 | F2 E2 A,=B, C2 | B,2 E2 A,4 | D2 D2 ED C2 | B,CD=E F4 | %12
 FE D2 C2 F,2 | G,2 A,2 B,2 A,2 | G,4 B,2 =B,2 | C2 G,2 A,2 B,2 | B,2 A,2 F,4 :| %17
V:4
 B,2 A,2 B,2 F,2 | G,2 A,B, CC, F,2 | G,2 A,2 B,2 G,2 | F,E, F,2 B,,4 | B,2 A,2 B,2 F,2 | %5
 G,2 A,B, CC, F,2 | G,2 A,2 B,2 G,2 | F,E, F,2 B,,4 | B,,2 C,2 D,2 E,F, | G,F, E,2 D,4 | %10
 B,C B,2 E,2 F,2 | G,A, B,2 F,4 | B,2 B,,2 C,2 D,2 | E,D, C,2 B,,C, D,2 | G,,4 G,2 D,2 | %15
 E,2 =E,2 F,_E,D,B,, | F,2 F,,2 B,,4 :| %17

